X:1
T:Title
%%score { ( 1 3 ) | 2 }
L:1/8
M:4/4
K:Eb
V:1 treble nm="Grand Piano"
V:3 treble 
V:2 bass 
V:1
 z4 z2[Q:1/4=104] E2 | GGGG [FA]2 [GB]2 | [Ac]2 [GB]4 [EG]2 | [DF][DF][DF][DG] [B,E]2 [B,DF]2 | %4
[M:3/4] [B,EG]6 |[M:1/4] [EGB]2 |[M:4/4] [Ge][Ge][Ge][Ge] [Ge]2 [GB]2 | [Ac]2 [GB]4 [CFA]2 | %8
 [B,EG]2 [B,EG]2 [A,DF]3 [A,DF] |[M:3/4] E6 |[M:1/4] G2 |[M:4/4] E6 z2 | %12
 [GB]2- [EG-B-]2 [EGB]2 [EGB]2 | [EAc]2 [EAc]2 [EAc]2 [Ece][Ece] | [EGB]2 [EGB]2 [B,EG]2 [A,B,F]2 | %15
 [B,E]6 z2 | [GB]2- [EG-B-]2 [EGB]2 E2 | [EG]2 [EG]2 [DF]3 [DF] |[M:3/4] E6 |[M:1/4] G2 | %20
[M:4/4] E6 z2 | [GB]2- [EG-B-]2 [EGB]2 [EGB]2 | [EAc]2 [EAc]2 [EAc]2 [Ece][Ece] | %23
 [EGB]2 [EGB]2 [B,EG]2 [A,B,F]2 | [B,E]6 z2 | [GB]2- [EG-B-]2 [EGB]2 [G,E]2 | %26
 [B,EG]2 [B,EG]2 [A,DF]3 [A,DF] |[M:3/4] [G,E]6 |] %28
V:2
 z4 z2 [E,G,]2 | [E,B,E][E,B,E][E,B,E][E,B,E] [E,E]2 [E,E]2 | [E,E]2 [E,E]4 [E,B,]2 | %3
 [B,,B,][B,,B,][B,,B,][B,,B,] G,,2 B,,2 |[M:3/4] E,6 |[M:1/4] E,2 | %6
[M:4/4] [E,B,][E,B,][E,B,][E,B,] [E,B,]2 [E,E]2 | [E,E]2 [E,E]4 A,,2 | B,,2 B,,2 B,,3 B,, | %9
[M:3/4] [E,G,]6 |[M:1/4] [E,B,E]2 |[M:4/4] [E,G,]2 E,2 E,2 E,2 | E,2 E,2 E,2 E,2 | %13
 A,2 A,2 A,2 A,A, | E,2 E,2 E,2 E,2 | E,2 E,2 E,2 E,2 | E,2 E,2 E,2 [C,G,]2 | %17
 [B,,B,]2 [B,,B,]2 [B,,A,]3 [B,,A,] |[M:3/4] [E,G,]6 |[M:1/4] [E,B,E]2 | %20
[M:4/4] [E,G,]2 E,2 E,2 E,2 | E,2 E,2 E,2 E,2 | A,2 A,2 A,2 A,A, | E,2 E,2 E,2 E,2 | %24
 E,2 E,2 E,2 E,2 | E,2 E,2 E,2 C,2 | B,,2 B,,2 B,,3 B,, |[M:3/4] E,6 |] %28
V:3
 x8 | x8 | x8 | x8 |[M:3/4] x6 |[M:1/4] x2 |[M:4/4] x8 | x8 | x8 |[M:3/4] x6 |[M:1/4] x2 | %11
[M:4/4] z2 G,2 G,2 [B,EG]2 | E2 z2 z4 | x8 | x8 | G,2 G,2 G,2 [B,EG]2 | E2 z2 z4 | x8 |[M:3/4] x6 | %19
[M:1/4] x2 |[M:4/4] z2 G,2 G,2 [B,EG]2 | E2 z2 z4 | x8 | x8 | G,2 G,2 G,2 [B,EG]2 | E2 z2 z4 | x8 | %27
[M:3/4] x6 |] %28

